icons/fill-ele-symbol-unfold.svg

<svg xmlns="http://www.w3.org/2000/svg" width="32px" height="32px" viewBox="0 0 32 32" version="1.1">
    <title>fill-ele-symbol-unfold</title>
    <g id="fill-ele-symbol-unfold" stroke-width="1" fill-rule="evenodd">
        <path d="M5,6 L27,6 C27.5522847,6 28,6.44771525 28,7 L28,9 C28,9.55228475 27.5522847,10 27,10 L5,10 C4.44771525,10 4,9.55228475 4,9 L4,7 C4,6.44771525 4.44771525,6 5,6 Z M5,22 L27,22 C27.5522847,22 28,22.4477153 28,23 L28,25 C28,25.5522847 27.5522847,26 27,26 L5,26 C4.44771525,26 4,25.5522847 4,25 L4,23 C4,22.4477153 4.44771525,22 5,22 Z M5,14 L18,14 C18.5522847,14 19,14.4477153 19,15 L19,17 C19,17.5522847 18.5522847,18 18,18 L5,18 C4.44771525,18 4,17.5522847 4,17 L4,15 C4,14.4477153 4.44771525,14 5,14 Z M22,13.4948137 L22,18.5051863 C22,18.9470141 22.3581722,19.3051863 22.8,19.3051863 C22.95794,19.3051863 23.1123462,19.2584359 23.2437602,19.1708265 L27.0015396,16.6656402 C27.3691626,16.4205583 27.4685017,15.9238628 27.2234197,15.5562398 C27.1648318,15.468358 27.0894215,15.3929476 27.0015396,15.3343598 L23.2437602,12.8291735 C22.8761372,12.5840915 22.3794417,12.6834306 22.1343598,13.0510535 C22.0467504,13.1824675 22,13.3368737 22,13.4948137 Z" id="&#24418;&#29366;" />
    </g>
</svg>

<svg xmlns="http://www.w3.org/2000/svg" viewBox="0 0 32 32"><path fill="currentColor" d="M5 6h22a1 1 0 0 1 1 1v2a1 1 0 0 1-1 1H5a1 1 0 0 1-1-1V7a1 1 0 0 1 1-1m0 16h22a1 1 0 0 1 1 1v2a1 1 0 0 1-1 1H5a1 1 0 0 1-1-1v-2a1 1 0 0 1 1-1m0-8h13a1 1 0 0 1 1 1v2a1 1 0 0 1-1 1H5a1 1 0 0 1-1-1v-2a1 1 0 0 1 1-1m17-.505v5.01a.8.8 0 0 0 1.244.666l3.758-2.505a.8.8 0 0 0 0-1.332l-3.758-2.505a.8.8 0 0 0-1.244.666"/></svg>
